{
  "type": "map",
  "version": "1.10",
  "orientation": "orthogonal",
  "infinite": false,
  "width": 40,
  "height": 20,
  "tilewidth": 32,
  "tileheight": 32,
  "nextlayerid": 2,
  "nextobjectid": 2,
  "tilesets": [],
  "layers": [
    {
      "id": 1,
      "name": "CameraBounds",
      "type": "objectgroup",
      "visible": true,
      "opacity": 1,
      "color": "#55dd88",
      "objects": [
        {
          "id": 1,
          "name": "Room",
          "x": 64,
          "y": 32,
          "width": 960,
          "height": 480,
          "rotation": 0,
          "visible": true
        }
      ]
    }
  ]
}
