{ "compressionlevel":-1,
 "height":3,
 "infinite":false,
 "layers":[
        {
         "data":[1, 1, 1, 1,
            1, 1, 1, 1,
            1, 1, 1, 1],
         "height":3,
         "id":1,
         "name":"Blocks",
         "opacity":1,
         "type":"tilelayer",
         "visible":true,
         "width":4,
         "x":0,
         "y":0
        }],
 "nextlayerid":2,
 "nextobjectid":1,
 "orientation":"orthogonal",
 "properties":[
        {
         "name":"stageName",
         "type":"string",
         "value":"SampleTileStage"
        }],
 "renderorder":"right-down",
 "tiledversion":"1.10.2",
 "tileheight":32,
 "tilesets":[
        {
         "firstgid":1,
         "source":"SampleTileset.tsj"
        }],
 "tilewidth":32,
 "type":"map",
 "version":"1.10",
 "width":4
}