{ "compressionlevel":-1,
 "height":10,
 "infinite":false,
 "layers":[
        {
         "draworder":"topdown",
         "id":1,
         "name":"StageObjects",
         "objects":[
                {
                 "height":0,
                 "id":1,
                 "name":"GroundA",
                 "point":true,
                 "properties":[
                        {
                         "name":"typeId",
                         "type":"int",
                         "value":100
                        }],
                 "rotation":0,
                 "type":"",
                 "visible":true,
                 "width":0,
                 "x":0,
                 "y":0
                }, 
                {
                 "height":0,
                 "id":2,
                 "name":"GroundB",
                 "point":true,
                 "properties":[
                        {
                         "name":"scaleX",
                         "type":"float",
                         "value":0.5
                        }, 
                        {
                         "name":"scaleY",
                         "type":"float",
                         "value":0.5
                        }, 
                        {
                         "name":"typeId",
                         "type":"int",
                         "value":100
                        }],
                 "rotation":15,
                 "type":"",
                 "visible":true,
                 "width":0,
                 "x":64,
                 "y":160
                }, 
                {
                 "height":0,
                 "id":3,
                 "name":"EditorOnlyMarker",
                 "point":true,
                 "rotation":0,
                 "type":"",
                 "visible":true,
                 "width":0,
                 "x":32,
                 "y":32
                }, 
                {
                 "height":0,
                 "id":4,
                 "name":"TestGround",
                 "point":true,
                 "properties":[
                        {
                         "name":"scaleX",
                         "type":"float",
                         "value":2
                        }, 
                        {
                         "name":"scaleY",
                         "type":"float",
                         "value":0.5
                        }, 
                        {
                         "name":"typeId",
                         "type":"int",
                         "value":100
                        }],
                 "rotation":0,
                 "type":"",
                 "visible":true,
                 "width":0,
                 "x":95.6663735711594,
                 "y":32.9606833312398
                }, 
                {
                 "height":0,
                 "id":7,
                 "name":"",
                 "properties":[
                        {
                         "name":"scaleX",
                         "type":"float",
                         "value":2
                        }, 
                        {
                         "name":"scaleY",
                         "type":"float",
                         "value":0.5
                        }, 
                        {
                         "name":"typeId",
                         "type":"int",
                         "value":100
                        }],
                 "rotation":30,
                 "type":"",
                 "visible":true,
                 "width":0,
                 "x":143.097600803919,
                 "y":15.2744630071599
                }],
         "opacity":1,
         "type":"objectgroup",
         "visible":true,
         "x":0,
         "y":0
        }],
 "nextlayerid":2,
 "nextobjectid":8,
 "orientation":"orthogonal",
 "properties":[
        {
         "name":"stageName",
         "type":"string",
         "value":"SampleConvertedStage"
        }],
 "renderorder":"right-down",
 "tiledversion":"1.10.2",
 "tileheight":32,
 "tilesets":[],
 "tilewidth":32,
 "type":"map",
 "version":"1.10",
 "width":20
}