{
  "height": 0,
  "infinite": true,
  "layers": [
    {
      "chunks": [
        {
          "data": [1, 0, 1, 1],
          "height": 2,
          "width": 2,
          "x": -2,
          "y": 1
        }
      ],
      "id": 1,
      "name": "InfiniteBlocks",
      "opacity": 1,
      "type": "tilelayer",
      "visible": true,
      "x": 0,
      "y": 0
    }
  ],
  "nextlayerid": 2,
  "orientation": "orthogonal",
  "renderorder": "right-down",
  "tiledversion": "1.10.2",
  "tileheight": 32,
  "tilesets": [
    {
      "columns": 1,
      "firstgid": 1,
      "name": "InlineBlocks",
      "tilecount": 1,
      "tileheight": 32,
      "tiles": [
        {
          "id": 0,
          "properties": [
            { "name": "typeId", "type": "int", "value": 100 }
          ]
        }
      ],
      "tilewidth": 32
    }
  ],
  "tilewidth": 32,
  "type": "map",
  "version": "1.10",
  "width": 0
}
